X:1
T: Mrs. Fitchet
C:
R:Strathspey
Q: 128
K:F
M:4/4
L:1/16
|:F3G A3B cF3 A3c|d3f c3f B3f A3f|F3G A3B cF3 A3c|def2 cBA2 BG3 G3C|
F3G A3B cF3 A3c|d3f c3f B3f A3f|F3G A3B cF3 A3c|def2 cBA2 BG3 G2b2|
a3f e3f d3f c3b|a3f c3A BG3 G3b|a3f e3f d3f c3A|B3G E3c AF3 F3c|
f3g a3f e3f g3e|f3d c3A BG3 G3B|((3A2B2c2) ((3c2B2A2) ((3B2c2d2) ((3d2c2B2) |def2 efg2 af3 f4:|
